X:127
T:A Mighty Fortress Is Our God
%%stretchlast false
M:4/4
L:1/4
K:C clef=C1
"^I"[CGec'] "^I¹"[EGcc'] "^I"[CGec'] "^V¹"[B,Gdg]/ "^V/V²"[A,^Fda]/ | "^V"[G,Gdb] "^vi"[A,Ecc']/ [A,Ecb]/ "^V/V"[D^Fda] "^V"[G,GBg] | "^vi"[A,Ecc'] "^iii"[EGeb] "^IV"[Fca] "^I"[CEcg] | "^vi"[A,Eca] "^ii"[DFAf]/ [DFAe]/ "^V"[G,GBd] "^I"[CEc] | [CGec'] "^I¹"[EGcc'] "^I"[CGec'] "^V¹"[B,Gdg]/ "^V/V²"[A,^Fda]/ | "^V"[G,Gdb] "^vi"[A,Ecc']/ [A,Ecb]/ "^V/V"[D^Fda] "^V"[G,GBg] | "^vi"[A,Ecc'] "^iii"[EGeb] "^IV"[Fca] "^I"[CEcg] | "^vi"[A,Eca] "^ii"[DFAf]/ [DFAe]/ "^V"[G,GBd] "^I"[CEc] | [CEc] [CGce] "^V¹"[B,Gdg] "^vi"[A,cea] | "^V/V"[DAd^f] "^V"[G,Bdg] "^vi"[A,Ec] "^V¹"[B,Gdg] | "^I"[Cceg] "^IV"[Fcfa] "^vii°¹"[Ddfb] "^I"[CGec'] | "^iii"[EGeb] "^vi"[A,Eec'] "^V¹"[B,Gdb] "^vi7¹"[CGea] | "^II"[D^Fda]/ "^II7"[D^Fca]/ "^V"[G,GBg] "^IV"[F,cfa] "^IV¹"[A,cfa] | "^I"[Cceg]/ "^I7"[C^Aeg]/ "^V/ii¹"[^CAea] "^ii"[DAdf] "^V/vi"[E^GBe] | "^vi"[A,Aec'] "^iii"[EGeb]/ "^iii7"[EGdb]/ "^IV"[Fca] "^I"[CEcg]/ "^I7"[CE^Ag]/ | "^V/ii¹"[^CEAa] "^ii"[DFAf]/ [DFAe]/ "^v"[G,G^Ad]/ "^v7"[G,F^Ad]/ "^I"[CEc] |]
